X: 27185
T: Miss Monaghan
R: reel
M: 4/4
K: Dmajor
D2 (3FED FA ~A2|DGBG FA ~A2|DBBA ~B3 d|fedf ~e3 z|
AD (3FED FA ~A2|GAAG FA ~A2|d2 fd ecdB|AFEG FD D2|
D2FD FA ~A2|GB ~B2 FA ~A2|d2 ba ~b3 a|fedf ~e3 z|
DADA FA ~A2|~B3 A FA ~A2|d2 fd efdB|AFGE FD D2||
~a3 f afdf|(3gfe (3fed edBc|Dgbg ~a3 e|fedf ~e3 g|
afab afdf|geed edB z|dedB A2 dB|AFEA FD D2|
f2 ab afdf|gbfb edB z|DEDB ~A3 D|fedf ~e3 z|
fgab afdf|gbfa edBc|dedB A2 dB|AFEG FDDA||

